!! 00000] TT[WS
!!!OTL: Guanggunr zitan
!!!ARE: Asia, China, Shanxi Yuanping
!! Ethnic Group: Han
!! WII, 150 (1)
!!!SCT: J0627
!!!YEM: Copyright 1995, estate of Helmut Schaffrath.
**kern
*ICvox
*Ivox
*M2/4
*k[b-]
*F:
{8dd
16dd
16cc
8dd
16dd
16cc
=1
8ff
16ff
16a
8cc
8cc
=2
16dd
16ff
16dd
16cc
8b-
8cc
=3
8dd
16ff
16a
16g
16a
16g
16d
=4
2g}
=5
{8.g
16a
8cc
16cc
16cc
=6
16a
16cc
16a
16cc
8dd
16dd
16a
=7
16g
16a
16g
16f
16g
16f
[8d
=8
8d]
8cc}
{16f
16f
16f
16g
=9
16f
16g
8a
8g
[8g
=10
8g]
8cc
8f
8f
=11
16f
16d
8c
4c}
==
!!!AGN: Xiaodiao. Qingge, Aisu
!!!ONB: ESAC (Essen Associative Code) Database: CHINA
!!!AMT: simple duple
!!!AIN: vox
!!!EED: Helmut Schaffrath
!!!EEV: 1.0
*-
!!!ONB: Tied note syntax fixed by Craig Sapp, 2004/05/03/
